src/icons/outline/stop.svg

<svg width="24" height="24" viewBox="0 0 24 24" fill="none" xmlns="http://www.w3.org/2000/svg">
<path d="M21 12C21 16.9706 16.9706 21 12 21C7.02944 21 3 16.9706 3 12C3 7.02944 7.02944 3 12 3C16.9706 3 21 7.02944 21 12Z" stroke="#4B5563" stroke-width="2" stroke-linecap="round" stroke-linejoin="round"/>
<path d="M9 10C9 9.44772 9.44772 9 10 9H14C14.5523 9 15 9.44772 15 10V14C15 14.5523 14.5523 15 14 15H10C9.44772 15 9 14.5523 9 14V10Z" stroke="#4B5563" stroke-width="2" stroke-linecap="round" stroke-linejoin="round"/>
</svg>

<svg xmlns="http://www.w3.org/2000/svg" fill="none" viewBox="0 0 24 24" stroke="currentColor">
  <path stroke-linecap="round" stroke-linejoin="round" stroke-width="2" d="M21 12a9 9 0 11-18 0 9 9 0 0118 0z"/>
  <path stroke-linecap="round" stroke-linejoin="round" stroke-width="2" d="M9 10a1 1 0 011-1h4a1 1 0 011 1v4a1 1 0 01-1 1h-4a1 1 0 01-1-1v-4z"/>
</svg>
